images/flags/ko.svg

<svg height="600" viewBox="-36 -24 72 48" width="900" xmlns="http://www.w3.org/2000/svg" xmlns:xlink="http://www.w3.org/1999/xlink"><path d="m-36-24h72v48h-72z" fill="#fff"/><g transform="matrix(.5547002 -.83205029 .83205029 .5547002 0 0)"><g id="a"><path id="b" d="m-6-25h12m-12 3h12m-12 3h12" stroke="#000" stroke-width="2"/><use xlink:href="#b" y="44"/></g><path d="m0 17v10" stroke="#fff"/><circle fill="#cd2e3a" r="12"/><path d="m0-12a6 6 0 0 0 0 12 6 6 0 0 1 0 12 12 12 0 0 1 0-24z" fill="#0047a0"/></g><g transform="matrix(-.5547002 -.83205029 .83205029 -.5547002 0 0)"><use xlink:href="#a"/><path d="m0-23.5v3m0 37.5v3.5m0 3v3" stroke="#fff"/></g></svg>

<?xml version="1.0" encoding="UTF-8"?>
<svg xmlns="http://www.w3.org/2000/svg" xmlns:xlink="http://www.w3.org/1999/xlink" width="900" height="600" viewBox="-36 -24 72 48">
<title>Flag of South Korea</title>
<rect fill="#fff" x="-36" y="-24" width="72" height="48"/>
<g transform="rotate(-56.3099325)"><!--arctan(-3/2)-->
<g id="b2"><path id="b" d="M-6-25H6M-6-22H6M-6-19H6" stroke="#000" stroke-width="2"/>
<use xlink:href="#b" y="44"/></g>
<path stroke="#fff" stroke-width="1" d="M0,17v10"/>
<circle fill="#cd2e3a" r="12"/>
<path fill="#0047a0" d="M0-12A6,6 0 0 0 0,0A6,6 0 0 1 0,12A12,12 0 0,1 0-12Z"/></g>
<g transform="rotate(-123.6900675)"><use xlink:href="#b2"/>
<path stroke="#fff" stroke-width="1" d="M0-23.5v3M0,17v3.5M0,23.5v3"/></g></svg>
